Breeze Round Light/actions/16/gnumeric-pagesetup-hf-pages.svg

<!DOCTYPE svg>
<svg viewBox="0 0 16 16" version="1.1" xmlns="http://www.w3.org/2000/svg">
    <defs>
<style type="text/css" id="current-color-scheme">.ColorScheme-Text {color:#fcfcfc;}</style>
    </defs>
    <path class="ColorScheme-Text" style="fill:currentColor; fill-opacity:1; stroke:none" d="M 4,2 V 3 H 3 V 4 H 4 V 6 H 3 V 7 H 4 V 8 H 5 V 7 H 7 V 8 H 8 V 7 H 9 V 6 H 8 V 4 H 9 V 3 H 8 V 2 H 7 V 3 H 5 V 2 Z m 6,0 v 4 h 2 v 1 h 1 V 5 Z M 5,4 H 7 V 6 H 5 Z M 9,8 V 9 H 8 v 1 h 1 v 2 H 8 v 1 h 1 v 1 h 1 v -1 h 2 v 1 h 1 v -1 h 1 v -1 h -1 v -2 h 1 V 9 H 13 V 8 H 12 V 9 H 10 V 8 Z M 3,9 c 0,0 0,1 0,3 0,2 2,2 2,2 H 7 V 13 H 5 C 5,13 4,13 4,12 4,11 4,9 4,9 Z m 7,1 h 2 v 2 h -2 z"/>
</svg>

<svg xmlns="http://www.w3.org/2000/svg" viewBox="0 0 16 16">
  <defs id="defs3051">
    <style type="text/css" id="current-color-scheme">
      .ColorScheme-Text {
        color:#232629;
      }
      </style>
  </defs>
 <path style="fill:currentColor;fill-opacity:1;stroke:none" 
       d="M 4 2 L 4 3 L 3 3 L 3 4 L 4 4 L 4 6 L 3 6 L 3 7 L 4 7 L 4 8 L 5 8 L 5 7 L 7 7 L 7 8 L 8 8 L 8 7 L 9 7 L 9 6 L 8 6 L 8 4 L 9 4 L 9 3 L 8 3 L 8 2 L 7 2 L 7 3 L 5 3 L 5 2 L 4 2 z M 10 2 L 10 3 L 12 3 L 12 7 L 13 7 L 13 2 L 10 2 z M 5 4 L 7 4 L 7 6 L 5 6 L 5 4 z M 9 8 L 9 9 L 8 9 L 8 10 L 9 10 L 9 12 L 8 12 L 8 13 L 9 13 L 9 14 L 10 14 L 10 13 L 12 13 L 12 14 L 13 14 L 13 13 L 14 13 L 14 12 L 13 12 L 13 10 L 14 10 L 14 9 L 13 9 L 13 8 L 12 8 L 12 9 L 10 9 L 10 8 L 9 8 z M 3 9 L 3 14 L 7 14 L 7 13 L 4 13 L 4 9 L 3 9 z M 10 10 L 12 10 L 12 12 L 10 12 L 10 10 z "
     class="ColorScheme-Text"
     />
</svg>
